images/instagram.svg

<svg width="50" height="50" viewBox="0 0 50 50" fill="none" xmlns="http://www.w3.org/2000/svg">
<path d="M49.144 8.94318C48.6889 4.67911 45.3213 1.31073 41.0568 0.856018C30.3627 -0.285339 19.6373 -0.285339 8.94356 0.856018C4.67911 1.31111 1.31111 4.67911 0.856018 8.94318C-0.285339 19.6369 -0.285339 30.3627 0.856018 41.0564C1.31111 45.3209 4.67911 48.6889 8.94318 49.144C19.6369 50.2853 30.3627 50.2853 41.0568 49.144C45.3213 48.6889 48.6889 45.3209 49.144 41.0564C50.2853 30.3627 50.2853 19.6373 49.144 8.94318Z" fill="url(#paint0_radial)"/>
<path d="M46.4245 10.7517C46.0209 6.96793 43.0324 3.97912 39.2483 3.57514C29.7588 2.56272 20.2411 2.56272 10.7517 3.57514C6.9679 3.97912 3.97909 6.96793 3.57511 10.7517C2.56269 20.2412 2.56269 29.7588 3.57511 39.2479C3.97909 43.0321 6.9679 46.0209 10.7517 46.4245C20.2411 47.4373 29.7588 47.4373 39.2479 46.4245C43.0321 46.0209 46.0209 43.0321 46.4245 39.2479C47.4373 29.7588 47.4373 20.2412 46.4245 10.7517Z" fill="url(#paint1_linear)"/>
<path d="M0.749207 40.02C0.783539 40.3656 0.819016 40.7112 0.856018 41.0568C1.31111 45.3209 4.67911 48.6889 8.94356 49.144C19.6373 50.2853 30.3631 50.2853 41.0568 49.144C45.3213 48.6889 48.6889 45.3209 49.144 41.0568C49.181 40.7112 49.2165 40.3656 49.2512 40.02H0.749207Z" fill="url(#paint2_linear)"/>
<path d="M49.144 41.0564C49.7574 35.3103 50.0405 29.5551 49.9947 23.8006L38.5658 12.3718C37.138 10.7418 35.0525 9.7244 32.6019 9.63628C27.5623 9.4547 22.5067 9.46386 17.4664 9.63705C13.2801 9.78124 10.3527 12.595 9.60199 16.7305C9.46962 17.4606 9.39027 18.2003 9.28613 18.9358V31.0596C9.34373 31.4525 9.42842 31.8435 9.45474 32.2387C9.62259 34.7542 10.6564 36.9087 12.3116 38.3663L23.9418 49.9962C29.6494 50.0362 35.3573 49.7524 41.0568 49.144C45.3213 48.6889 48.6889 45.3209 49.144 41.0564Z" fill="url(#paint3_linear)"/>
<path d="M49.144 41.0568C48.6893 45.3205 45.3205 48.6893 41.0568 49.144C35.358 49.752 29.649 50.0362 23.9422 49.9962L12.3295 38.3835C13.6757 39.5618 15.4304 40.2794 17.4667 40.3561C22.5059 40.5453 27.5627 40.5403 32.6019 40.3587C37.1597 40.1939 40.4579 36.8206 40.6002 32.2628C40.752 27.4235 40.752 22.5716 40.6002 17.7322C40.5353 15.6296 39.7972 13.7794 38.5734 12.3795L49.995 23.801C50.04 29.5547 49.757 35.3107 49.144 41.0568Z" fill="url(#paint4_linear)"/>
<path d="M30.8998 19.5858C29.4358 17.9916 27.335 16.9914 25 16.9914C20.5773 16.9914 16.9915 20.5772 16.9915 25C16.9915 27.335 17.9917 29.4357 19.5858 30.8998L38.115 49.4289C39.0957 49.3435 40.0765 49.2485 41.0565 49.144C45.3209 48.6889 48.6889 45.3209 49.144 41.0564C49.2485 40.0764 49.3435 39.0957 49.429 38.1149L30.8998 19.5858Z" fill="url(#paint5_linear)"/>
<path d="M49.9031 30.386L34.9907 15.4739C34.6428 15.0173 34.0946 14.7209 33.4762 14.7209C32.4241 14.7209 31.5708 15.5739 31.5708 16.6264C31.5708 17.2447 31.8672 17.7929 32.3238 18.1408L49.6364 35.4538C49.7539 33.765 49.8428 32.0755 49.9031 30.386Z" fill="url(#paint6_linear)"/>
<path d="M9.28613 18.9358C9.39027 18.2003 9.46962 17.4606 9.60199 16.7305C10.3523 12.595 13.2801 9.78124 17.4664 9.63705C22.5067 9.46386 27.5623 9.4547 32.6019 9.63628C37.1582 9.80032 40.4579 13.174 40.6002 17.7318C40.7517 22.5715 40.7517 27.4231 40.6002 32.2628C40.4579 36.8206 37.1594 40.1939 32.6023 40.3583C27.5627 40.5403 22.506 40.5449 17.4668 40.3557C12.9097 40.1844 9.75954 36.803 9.45474 32.2384C9.42842 31.8435 9.34373 31.4522 9.28613 31.0592C9.28613 27.018 9.28613 22.9767 9.28613 18.9358ZM25.0042 37.6571C27.3106 37.6571 29.6192 37.7262 31.9225 37.6411C35.5339 37.5072 37.7552 35.3519 37.8395 31.744C37.944 27.2484 37.944 22.7466 37.8395 18.2506C37.7552 14.6435 35.5324 12.4378 31.9225 12.3611C27.3407 12.2642 22.7539 12.265 18.1721 12.3611C14.5897 12.4363 12.3619 14.5973 12.2646 18.1648C12.1411 22.7173 12.1411 27.2777 12.2646 31.8302C12.3619 35.3973 14.5897 37.5084 18.1725 37.6411C20.4468 37.7258 22.7268 37.6571 25.0042 37.6571Z" fill="url(#paint7_linear)"/>
<path d="M9.28613 18.9358C9.39027 18.2003 9.46962 17.4606 9.60199 16.7305C10.3523 12.595 13.2801 9.78124 17.4664 9.63705C22.5067 9.46386 27.5623 9.4547 32.6019 9.63628C37.1582 9.80032 40.4579 13.174 40.6002 17.7318C40.7517 22.5715 40.7517 27.4231 40.6002 32.2628C40.4579 36.8206 37.1594 40.1939 32.6023 40.3583C27.5627 40.5403 22.506 40.5449 17.4668 40.3557C12.9097 40.1844 9.75954 36.803 9.45474 32.2384C9.42842 31.8435 9.34373 31.4522 9.28613 31.0592C9.28613 27.018 9.28613 22.9767 9.28613 18.9358ZM25.0042 37.6571C27.3106 37.6571 29.6192 37.7262 31.9225 37.6411C35.5339 37.5072 37.7552 35.3519 37.8395 31.744C37.944 27.2484 37.944 22.7466 37.8395 18.2506C37.7552 14.6435 35.5324 12.4378 31.9225 12.3611C27.3407 12.2642 22.7539 12.265 18.1721 12.3611C14.5897 12.4363 12.3619 14.5973 12.2646 18.1648C12.1411 22.7173 12.1411 27.2777 12.2646 31.8302C12.3619 35.3973 14.5897 37.5084 18.1725 37.6411C20.4468 37.7258 22.7268 37.6571 25.0042 37.6571Z" fill="white"/>
<path d="M25 16.9918C20.5773 16.9918 16.9915 20.5772 16.9915 25C16.9915 29.4231 20.5773 33.0086 25 33.0086C29.4232 33.0086 33.0086 29.4231 33.0086 25C33.0086 20.5772 29.4232 16.9918 25 16.9918ZM25 30.2513C22.0997 30.2513 19.7487 27.9003 19.7487 25C19.7487 22.0997 22.0997 19.7487 25 19.7487C27.9003 19.7487 30.2513 22.0997 30.2513 25C30.2513 27.9003 27.9003 30.2513 25 30.2513Z" fill="white"/>
<path d="M35.3813 16.6264C35.3813 17.6785 34.5283 18.5314 33.4762 18.5314C32.4241 18.5314 31.5708 17.6785 31.5708 16.6264C31.5708 15.5739 32.4241 14.7209 33.4762 14.7209C34.5283 14.7209 35.3813 15.5739 35.3813 16.6264Z" fill="white"/>
<defs>
<radialGradient id="paint0_radial" cx="0" cy="0" r="1" gradientUnits="userSpaceOnUse" gradientTransform="translate(10.2497 43.696) scale(55.1412)">
<stop stop-color="#FAE100"/>
<stop offset="0.0544" stop-color="#FADC04"/>
<stop offset="0.1167" stop-color="#FBCE0E"/>
<stop offset="0.1829" stop-color="#FCB720"/>
<stop offset="0.2514" stop-color="#FE9838"/>
<stop offset="0.3054" stop-color="#FF7950"/>
<stop offset="0.4922" stop-color="#FF1C74"/>
<stop offset="1" stop-color="#6C1CD1"/>
</radialGradient>
<linearGradient id="paint1_linear" x1="19.177" y1="21.7246" x2="-65.5289" y2="-25.9225" gradientUnits="userSpaceOnUse">
<stop stop-color="#A1B5D8" stop-opacity="0"/>
<stop offset="0.3094" stop-color="#90A2BD" stop-opacity="0.309804"/>
<stop offset="0.7554" stop-color="#7C8B9C" stop-opacity="0.756863"/>
<stop offset="1" stop-color="#748290"/>
</linearGradient>
<linearGradient id="paint2_linear" x1="25" y1="44.1373" x2="25" y2="51.9311" gradientUnits="userSpaceOnUse">
<stop stop-color="#FAE100" stop-opacity="0"/>
<stop offset="0.3068" stop-color="#FCA800" stop-opacity="0.305882"/>
<stop offset="0.6275" stop-color="#FE7300" stop-opacity="0.627451"/>
<stop offset="0.8685" stop-color="#FF5200" stop-opacity="0.866667"/>
<stop offset="1" stop-color="#FF4500"/>
</linearGradient>
<linearGradient id="paint3_linear" x1="22.1555" y1="22.0847" x2="9.78133" y2="9.71054" gradientUnits="userSpaceOnUse">
<stop stop-color="#833AB4" stop-opacity="0"/>
<stop offset="1" stop-color="#833AB4"/>
</linearGradient>
<linearGradient id="paint4_linear" x1="34.2675" y1="45.7312" x2="28.0913" y2="16.615" gradientUnits="userSpaceOnUse">
<stop stop-color="#833AB4" stop-opacity="0"/>
<stop offset="1" stop-color="#833AB4"/>
</linearGradient>
<linearGradient id="paint5_linear" x1="36.6177" y1="36.6177" x2="11.8107" y2="11.8106" gradientUnits="userSpaceOnUse">
<stop stop-color="#833AB4" stop-opacity="0"/>
<stop offset="1" stop-color="#833AB4"/>
</linearGradient>
<linearGradient id="paint6_linear" x1="38.4577" y1="21.6077" x2="30.2545" y2="13.4045" gradientUnits="userSpaceOnUse">
<stop stop-color="#833AB4" stop-opacity="0"/>
<stop offset="1" stop-color="#833AB4"/>
</linearGradient>
<linearGradient id="paint7_linear" x1="34.9276" y1="15.1415" x2="14.7014" y2="35.3677" gradientUnits="userSpaceOnUse">
<stop stop-color="#833AB4"/>
<stop offset="0.0922" stop-color="#9C3495"/>
<stop offset="0.2927" stop-color="#DC2546"/>
<stop offset="0.392" stop-color="#FD1D1D"/>
<stop offset="0.5589" stop-color="#FC6831"/>
<stop offset="0.6887" stop-color="#FC9B40"/>
<stop offset="0.7521" stop-color="#FCAF45"/>
<stop offset="0.7806" stop-color="#FDB750"/>
<stop offset="0.8656" stop-color="#FECB6A"/>
<stop offset="0.9415" stop-color="#FFD87A"/>
<stop offset="1" stop-color="#FFDC80"/>
</linearGradient>
</defs>
</svg>

<svg width="50" height="50" fill="none" xmlns="http://www.w3.org/2000/svg"><path d="M49.144 8.943A9.104 9.104 0 0041.057.856a151.018 151.018 0 00-32.113 0A9.104 9.104 0 00.856 8.943a151.018 151.018 0 000 32.113 9.104 9.104 0 008.087 8.088 151.029 151.029 0 0032.114 0 9.104 9.104 0 008.087-8.088 151.025 151.025 0 000-32.113z" fill="url(#paint0_radial)"/><path d="M46.425 10.752a8.079 8.079 0 00-7.177-7.177 134.062 134.062 0 00-28.496 0 8.08 8.08 0 00-7.177 7.177 134.058 134.058 0 000 28.496 8.079 8.079 0 007.177 7.177 134.008 134.008 0 0028.496 0 8.078 8.078 0 007.177-7.177 134.008 134.008 0 000-28.496z" fill="url(#paint1_linear)"/><path d="M.75 40.02c.034.346.069.691.106 1.037a9.104 9.104 0 008.088 8.087 151.025 151.025 0 0032.113 0 9.104 9.104 0 008.087-8.087c.037-.346.073-.691.107-1.037H.75z" fill="url(#paint2_linear)"/><path d="M49.144 41.056c.613-5.746.897-11.5.85-17.255L38.567 12.37c-1.428-1.63-3.514-2.647-5.964-2.735a215.308 215.308 0 00-15.136.001c-4.186.144-7.113 2.958-7.864 7.093-.132.73-.212 1.47-.316 2.206V31.06c.058.393.142.784.169 1.179.168 2.515 1.201 4.67 2.857 6.127l11.63 11.63c5.707.04 11.415-.244 17.115-.852a9.104 9.104 0 008.087-8.088z" fill="url(#paint3_linear)"/><path d="M49.144 41.057a9.104 9.104 0 01-8.087 8.087 151.27 151.27 0 01-17.115.852L12.33 38.383c1.347 1.179 3.101 1.896 5.138 1.973 5.039.19 10.096.184 15.135.003 4.558-.165 7.856-3.538 7.998-8.096.152-4.84.152-9.691 0-14.53-.065-2.103-.803-3.954-2.027-5.354l11.422 11.422a151.43 151.43 0 01-.851 17.256z" fill="url(#paint4_linear)"/><path d="M30.9 19.586A8.009 8.009 0 1019.586 30.9l18.529 18.529c.98-.086 1.962-.18 2.941-.285a9.104 9.104 0 008.088-8.088c.105-.98.2-1.96.285-2.941l-18.53-18.53z" fill="url(#paint5_linear)"/><path d="M49.903 30.386L34.991 15.474a1.906 1.906 0 10-2.667 2.667l17.312 17.313c.118-1.689.207-3.379.267-5.068z" fill="url(#paint6_linear)"/><path d="M9.286 18.936c.104-.736.184-1.475.316-2.206.75-4.135 3.678-6.949 7.864-7.093 5.04-.173 10.096-.182 15.136 0 4.556.163 7.856 3.537 7.998 8.095.152 4.84.152 9.691 0 14.53-.142 4.559-3.44 7.932-7.998 8.096-5.04.182-10.096.187-15.135-.002-4.557-.172-7.707-3.553-8.012-8.118-.027-.395-.111-.786-.169-1.179V18.936zm15.718 18.721c2.307 0 4.615.07 6.918-.016 3.612-.134 5.833-2.29 5.918-5.897.104-4.496.104-8.997 0-13.493-.085-3.608-2.308-5.813-5.918-5.89a326.588 326.588 0 00-13.75 0c-3.582.075-5.81 2.236-5.907 5.804a252.061 252.061 0 000 13.665c.097 3.567 2.325 5.678 5.907 5.811 2.275.085 4.555.016 6.832.016z" fill="url(#paint7_linear)"/><path d="M9.286 18.936c.104-.736.184-1.475.316-2.206.75-4.135 3.678-6.949 7.864-7.093 5.04-.173 10.096-.182 15.136 0 4.556.163 7.856 3.537 7.998 8.095.152 4.84.152 9.691 0 14.53-.142 4.559-3.44 7.932-7.998 8.096-5.04.182-10.096.187-15.135-.002-4.557-.172-7.707-3.553-8.012-8.118-.027-.395-.111-.786-.169-1.179V18.936zm15.718 18.721c2.307 0 4.615.07 6.918-.016 3.612-.134 5.833-2.29 5.918-5.897.104-4.496.104-8.997 0-13.493-.085-3.608-2.308-5.813-5.918-5.89a326.588 326.588 0 00-13.75 0c-3.582.075-5.81 2.236-5.907 5.804a252.061 252.061 0 000 13.665c.097 3.567 2.325 5.678 5.907 5.811 2.275.085 4.555.016 6.832.016z" fill="#fff"/><path d="M25 16.992a8.009 8.009 0 100 16.017 8.009 8.009 0 000-16.017zm0 13.26a5.251 5.251 0 110-10.503 5.251 5.251 0 010 10.502zm10.381-13.626a1.905 1.905 0 11-3.81 0 1.905 1.905 0 013.81 0z" fill="#fff"/><defs><linearGradient id="paint1_linear" x1="19.177" y1="21.725" x2="-65.529" y2="-25.922" gradientUnits="userSpaceOnUse"><stop stop-color="#A1B5D8" stop-opacity="0"/><stop offset=".309" stop-color="#90A2BD" stop-opacity=".31"/><stop offset=".755" stop-color="#7C8B9C" stop-opacity=".757"/><stop offset="1" stop-color="#748290"/></linearGradient><linearGradient id="paint2_linear" x1="25" y1="44.137" x2="25" y2="51.931" gradientUnits="userSpaceOnUse"><stop stop-color="#FAE100" stop-opacity="0"/><stop offset=".307" stop-color="#FCA800" stop-opacity=".306"/><stop offset=".627" stop-color="#FE7300" stop-opacity=".627"/><stop offset=".869" stop-color="#FF5200" stop-opacity=".867"/><stop offset="1" stop-color="#FF4500"/></linearGradient><linearGradient id="paint3_linear" x1="22.155" y1="22.085" x2="9.781" y2="9.711" gradientUnits="userSpaceOnUse"><stop stop-color="#833AB4" stop-opacity="0"/><stop offset="1" stop-color="#833AB4"/></linearGradient><linearGradient id="paint4_linear" x1="34.267" y1="45.731" x2="28.091" y2="16.615" gradientUnits="userSpaceOnUse"><stop stop-color="#833AB4" stop-opacity="0"/><stop offset="1" stop-color="#833AB4"/></linearGradient><linearGradient id="paint5_linear" x1="36.618" y1="36.618" x2="11.811" y2="11.811" gradientUnits="userSpaceOnUse"><stop stop-color="#833AB4" stop-opacity="0"/><stop offset="1" stop-color="#833AB4"/></linearGradient><linearGradient id="paint6_linear" x1="38.458" y1="21.608" x2="30.255" y2="13.405" gradientUnits="userSpaceOnUse"><stop stop-color="#833AB4" stop-opacity="0"/><stop offset="1" stop-color="#833AB4"/></linearGradient><linearGradient id="paint7_linear" x1="34.928" y1="15.142" x2="14.701" y2="35.368" gradientUnits="userSpaceOnUse"><stop stop-color="#833AB4"/><stop offset=".092" stop-color="#9C3495"/><stop offset=".293" stop-color="#DC2546"/><stop offset=".392" stop-color="#FD1D1D"/><stop offset=".559" stop-color="#FC6831"/><stop offset=".689" stop-color="#FC9B40"/><stop offset=".752" stop-color="#FCAF45"/><stop offset=".781" stop-color="#FDB750"/><stop offset=".866" stop-color="#FECB6A"/><stop offset=".942" stop-color="#FFD87A"/><stop offset="1" stop-color="#FFDC80"/></linearGradient><radialGradient id="paint0_radial" cx="0" cy="0" r="1" gradientUnits="userSpaceOnUse" gradientTransform="translate(10.25 43.696) scale(55.1412)"><stop stop-color="#FAE100"/><stop offset=".054" stop-color="#FADC04"/><stop offset=".117" stop-color="#FBCE0E"/><stop offset=".183" stop-color="#FCB720"/><stop offset=".251" stop-color="#FE9838"/><stop offset=".305" stop-color="#FF7950"/><stop offset=".492" stop-color="#FF1C74"/><stop offset="1" stop-color="#6C1CD1"/></radialGradient></defs></svg>
